build/img/icon/Advantages/box.svg

<svg width="40" height="40" viewBox="0 0 40 40" fill="none" xmlns="http://www.w3.org/2000/svg">
<g clip-path="url(#clip0_4_30)">
<path d="M38.4163 8.82584L20.2548 0.0581812C20.0938 -0.0194751 19.9063 -0.0194751 19.7453 0.0581812L1.58367 8.82584C1.38117 8.92357 1.2525 9.12865 1.2525 9.35349V30.6464C1.2525 30.8712 1.38117 31.0763 1.58367 31.174L19.7452 39.9417C19.8257 39.9805 19.9129 40 20 40C20.0871 40 20.1742 39.9805 20.2548 39.9417L38.4163 31.174C38.6188 31.0763 38.7475 30.8712 38.7475 30.6464V9.35357C38.7475 9.12857 38.6188 8.92365 38.4163 8.82584ZM20 1.23654L36.8138 9.35349L31.9399 11.7065C31.909 11.6829 31.8764 11.6612 31.8406 11.644L15.141 3.58224L20 1.23654ZM13.8177 4.24474L30.6071 12.3499L27.1684 14.01L10.386 5.9081L13.8177 4.24474ZM30.9999 13.4615V19.5979L27.788 21.1485V15.0121L30.9999 13.4615ZM37.5756 30.2787L20.5859 38.4804V18.4889L24.6385 16.5325C24.9299 16.3918 25.0521 16.0415 24.9114 15.7501C24.7707 15.4587 24.4205 15.3364 24.129 15.4772L20 17.4705L18.3753 16.6861C18.0838 16.5453 17.7336 16.6676 17.5929 16.959C17.4522 17.2504 17.5744 17.6008 17.8658 17.7415L19.4141 18.4889V38.4804L2.42438 30.2786V10.287L15.3619 16.5327C15.444 16.5724 15.5308 16.5912 15.6162 16.5912C15.834 16.5912 16.0432 16.4691 16.1442 16.2598C16.2849 15.9684 16.1627 15.6181 15.8713 15.4774L3.18617 9.35349L9.00688 6.54349L26.608 15.0406C26.6106 15.0442 26.6134 15.0474 26.6161 15.0509V22.0821C26.6161 22.2837 26.7198 22.4711 26.8906 22.5784C26.9854 22.6379 27.0936 22.668 27.2021 22.668C27.289 22.668 27.3761 22.6487 27.4568 22.6097L31.8406 20.4934C32.0431 20.3957 32.1718 20.1907 32.1718 19.9658V12.8958L37.5756 10.2871V30.2787Z" fill="#FFB800"/>
<path d="M7.25983 28.0062L4.59459 26.7196C4.30303 26.5787 3.95287 26.701 3.81217 26.9924C3.67147 27.2839 3.79366 27.6342 4.08506 27.7749L6.7503 29.0615C6.83241 29.1012 6.9192 29.1199 7.0046 29.1199C7.22241 29.1199 7.43163 28.9979 7.53264 28.7886C7.67342 28.4971 7.55124 28.147 7.25983 28.0062Z" fill="#FFB800"/>
<path d="M9.71275 26.4095L4.5983 23.9404C4.30681 23.7997 3.95658 23.9219 3.81588 24.2134C3.67525 24.5048 3.79744 24.8551 4.08884 24.9958L9.2033 27.4649C9.28541 27.5045 9.3722 27.5233 9.45759 27.5233C9.67541 27.5233 9.88463 27.4013 9.98564 27.192C10.1263 26.9004 10.0042 26.5501 9.71275 26.4095Z" fill="#FFB800"/>
</g>
<defs>
<clipPath id="clip0_4_30">
<rect width="40" height="40" fill="white"/>
</clipPath>
</defs>
</svg>

<svg width="40" height="40" fill="none" xmlns="http://www.w3.org/2000/svg"><g clip-path="url(#clip0_4_30)" fill="#FFB800"><path d="M38.416 8.826L20.255.058a.586.586 0 00-.51 0L1.584 8.826a.586.586 0 00-.332.527v21.293c0 .225.13.43.332.528l18.161 8.768a.587.587 0 00.51 0l18.161-8.768a.586.586 0 00.332-.528V9.354a.586.586 0 00-.332-.528zM20 1.236l16.814 8.117-4.874 2.354a.573.573 0 00-.1-.063L15.142 3.582 20 1.237zm-6.182 3.009l16.79 8.105-3.44 1.66-16.782-8.102 3.432-1.663zM31 13.46v6.137l-3.212 1.55v-6.136L31 13.462zm6.576 16.818l-16.99 8.201V18.49l4.053-1.957a.586.586 0 00-.51-1.055L20 17.471l-1.625-.785a.586.586 0 10-.51 1.055l1.55.748V38.48l-16.991-8.2V10.287l12.937 6.246a.583.583 0 00.782-.273.586.586 0 00-.273-.783L3.186 9.353l5.82-2.81 17.602 8.498.008.01v7.031a.586.586 0 00.84.528l4.385-2.117a.586.586 0 00.33-.527v-7.07l5.405-2.609V30.28z"/><path d="M7.26 28.006L4.595 26.72a.586.586 0 10-.51 1.055l2.665 1.287a.583.583 0 00.783-.273.586.586 0 00-.273-.783zm2.453-1.596l-5.115-2.47a.586.586 0 10-.51 1.056l5.115 2.469a.584.584 0 00.783-.273.586.586 0 00-.273-.782z"/></g><defs><clipPath id="clip0_4_30"><path fill="#fff" d="M0 0h40v40H0z"/></clipPath></defs></svg>
